flaticon/transportation/airplane-2.svg

<svg xmlns="http://www.w3.org/2000/svg" width="32" height="32" viewBox="0 0 24 24">
    <path d="M 23.765625 18.195312 L 19.296875 9.835938 C 19.121094 9.507812 19.148438 9.101562 19.371094 8.800781 L 22.902344 4.074219 C 23.179688 3.703125 23.316406 3.242188 23.292969 2.777344 L 23.242188 1.839844 C 23.210938 0.75 22.046875 -0.496094 20.496094 0.203125 L 18.164062 1.414062 C 17.902344 1.550781 17.675781 1.75 17.5 1.988281 L 13.550781 7.414062 L 3.609375 7.414062 C 3.214844 7.414062 2.230469 7.613281 1.96875 8.804688 C 1.695312 10.082031 2.851562 10.671875 3.089844 10.753906 L 9.554688 12.902344 L 6.773438 16.71875 C 6.632812 16.914062 6.429688 17.039062 6.199219 17.070312 L 1.6875 17.730469 C 0.179688 18.046875 -0.109375 19.398438 0.03125 20.085938 C 0.152344 20.667969 0.492188 21.167969 1 21.445312 L 5.21875 23.765625 C 6.199219 24.300781 7.078125 23.800781 7.433594 23.441406 L 14.214844 16.644531 C 14.507812 16.351562 14.980469 16.3125 15.3125 16.554688 L 21.003906 20.726562 C 21.773438 21.289062 22.914062 21.152344 23.53125 20.417969 C 24.054688 19.804688 24.148438 18.910156 23.765625 18.195312 Z M 3.414062 9.785156 C 3.316406 9.753906 2.863281 9.5 2.96875 9.003906 C 3.070312 8.519531 3.507812 8.433594 3.609375 8.433594 L 12.804688 8.433594 L 10.183594 12.035156 Z M 22.753906 19.757812 C 22.46875 20.09375 21.960938 20.160156 21.609375 19.902344 L 15.917969 15.730469 C 15.1875 15.199219 14.132812 15.28125 13.492188 15.921875 L 6.710938 22.71875 C 6.449219 22.984375 6.03125 23.046875 5.710938 22.871094 L 1.492188 20.550781 C 1.253906 20.421875 1.097656 20.183594 1.035156 19.902344 C 0.953125 19.507812 1.230469 18.847656 1.832031 18.738281 L 6.347656 18.082031 C 6.84375 18.007812 7.300781 17.730469 7.597656 17.320312 L 18.328125 2.589844 C 18.40625 2.476562 18.515625 2.382812 18.632812 2.320312 L 20.964844 1.109375 C 21.59375 0.765625 22.195312 1.34375 22.222656 1.894531 L 22.273438 2.832031 C 22.285156 3.058594 22.21875 3.285156 22.085938 3.460938 L 18.554688 8.191406 C 18.09375 8.804688 18.035156 9.640625 18.398438 10.320312 L 22.867188 18.679688 C 23.050781 19.027344 23.007812 19.460938 22.753906 19.757812 Z M 22.753906 19.757812"/>
</svg>

<svg xmlns="http://www.w3.org/2000/svg" width="32" height="32" viewBox="0 0 24 24">
    <path d="M23.766 18.195l-4.47-8.36a.974.974 0 0 1 .075-1.034l3.531-4.727a2 2 0 0 0 .391-1.297l-.05-.937C23.21.75 22.046-.496 20.495.203l-2.332 1.211a1.956 1.956 0 0 0-.664.574l-3.95 5.426H3.61c-.395 0-1.38.2-1.641 1.39-.274 1.278.883 1.868 1.12 1.95l6.466 2.148-2.782 3.817a.844.844 0 0 1-.574.351l-4.511.66C.18 18.047-.11 19.398.03 20.086c.121.582.461 1.082.969 1.36l4.219 2.32c.98.535 1.86.035 2.215-.325l6.78-6.796a.854.854 0 0 1 1.098-.09l5.692 4.172c.77.562 1.91.425 2.527-.309a1.997 1.997 0 0 0 .235-2.223zM3.414 9.785c-.098-.031-.55-.285-.445-.781a.702.702 0 0 1 .64-.57h9.196l-2.621 3.601zm19.34 9.973a.855.855 0 0 1-1.145.144l-5.691-4.172a1.9 1.9 0 0 0-2.426.192l-6.781 6.797a.85.85 0 0 1-1 .152l-4.219-2.32c-.238-.13-.394-.367-.457-.649-.082-.394.195-1.054.797-1.164l4.516-.656a1.902 1.902 0 0 0 1.25-.762l10.73-14.73a.875.875 0 0 1 .305-.27l2.332-1.21c.629-.344 1.23.234 1.258.785l.05.937a.967.967 0 0 1-.187.629l-3.531 4.73c-.461.614-.52 1.45-.157 2.13l4.47 8.359a.972.972 0 0 1-.114 1.078zm0 0"/>
</svg>
